!!!OTL: Graf Friedrich.
!!!OTL-incipit: Was sind doch die Strassen so enge!
!!!ARE: Europa, Mitteleuropa, Deutschland (BRD), Hessen - Nassau, Eitelborn
!!!YOR: 2, S. 204
!!    1927 aufgezeichnet
!!!SCT: Q0048E
!!!TXL: @@DE
!!!YEM: Copyright 1995, estate of Helmut Schaffrath.
**kern	**text
*ICvox	*
*M6/8	*
*k[]	*
*C:	*
{16cL	1._Was
16eJ	.
=1	=1
8g	ſind
8a	doch
8g	die
8d	Stra-
8e	-ßen
8f	ſo
=2	=2
8g	en-
[4e	-ge
4e]}	.
{16cL	Das
16eJ	.
=3	=3
8g	kommt
8a	von
8g	dem
8d	vie-
8e	-len
8f	Ge-
=4	=4
8g	-drän-
[4e	-ge.
4e]}	.
{8c	Der
=5	=5
8.a	Bräu-
16a	-ti-
8a	-gam
8g	führt
8a	ſei-
8b	-ne
=6	=6
8ccL	jun-
8bJ	.
8a	-ge
4g}	Braut
{16cc	von
16cc	der
=7	=7
8g	Kir-
8a	-che
8g	bis
8fL	ʒu
8eJ	.
8f	dem
=8	=8
8aL	Hoch-
8gJ	.
8f	-ʒeits-
4e;}	-haus.
==	==
!!!AGN: Ballade, Hochzeit, Mord / Unfall, Tod
!!!ONB: ESAC (Essen Associative Code) Database: BALLADE
!!!AMT: compound duple
!!!AIN: vox
!!!EED: Helmut Schaffrath
!!!EEV: 1.0
!!@@COMMENT:"A91347. Eitelborn (Naſſau), 1927."
!!@@END:
!!!source: Deutsche Volkslieder mit ihren Melodien. Herausgegeben vom Deutschen Volksliedarchiv. Zweiter Band Balladen. Berlin 1939.
!!!page: 204
!!!ENC: Anna Maria Matuszewska
!!!EEV: 2025/02/17
*-	*-
